svg/emoji_u1f4b9.svg

<svg enable-background="new 0 0 128 128" viewBox="0 0 128 128" xmlns="http://www.w3.org/2000/svg" xmlns:xlink="http://www.w3.org/1999/xlink"><linearGradient id="c" x1="64" x2="64" y1="4.25" y2="124.41" gradientUnits="userSpaceOnUse"><stop stop-color="#81C784" offset="0"/><stop stop-color="#6EBE71" offset=".4141"/><stop stop-color="#4CAF50" offset="1"/></linearGradient><path d="m116 124h-104c-4.42 0-8-3.58-8-8v-104c0-4.42 3.58-8 8-8h104c4.42 0 8 3.58 8 8v104c0 4.42-3.58 8-8 8z" fill="url(#c)"/><g opacity=".2"><path d="m116 7c2.76 0 5 2.24 5 5v104c0 2.76-2.24 5-5 5h-104c-2.76 0-5-2.24-5-5v-104c0-2.76 2.24-5 5-5h104m0-3h-104c-4.42 0-8 3.58-8 8v104c0 4.42 3.58 8 8 8h104c4.42 0 8-3.58 8-8v-104c0-4.42-3.58-8-8-8z" fill="#424242"/></g><polyline points="14.15 110.88 26.1 96.12 38.12 104.5 46.02 88 58.02 80 70.1 100 80.1 72 91.85 90 105.94 64.08 113.85 23.92" fill="none" stroke="#EFEBE9" stroke-linecap="round" stroke-linejoin="round" stroke-miterlimit="10" stroke-width="5"/><path d="m40.85 39.39 10.33-22.23c0.29-0.63 0.92-1.03 1.62-1.03h5.12c0.8 0 1.32 0.84 0.95 1.55l-12.24 24.01c-0.35 0.68 0.15 1.49 0.92 1.49h6.93c0.66 0 1.2 0.54 1.2 1.2v2.29c0 0.66-0.54 1.2-1.2 1.2h-9.93c-0.58 0-1.04 0.47-1.04 1.04v4.12c0 0.58 0.47 1.04 1.04 1.04h9.93c0.66 0 1.2 0.54 1.2 1.2v2.25c0 0.66-0.54 1.2-1.2 1.2h-9.93c-0.58 0-1.04 0.47-1.04 1.04v9.72c0 0.74-0.6 1.34-1.34 1.34h-4.57c-0.74 0-1.34-0.6-1.34-1.34v-9.72c0-0.58-0.47-1.04-1.04-1.04h-9.72c-0.66 0-1.2-0.54-1.2-1.2v-2.25c0-0.66 0.54-1.2 1.2-1.2h9.71c0.58 0 1.04-0.47 1.04-1.04v-4.12c0-0.58-0.47-1.04-1.04-1.04h-9.71c-0.66 0-1.2-0.54-1.2-1.2v-2.29c0-0.66 0.54-1.2 1.2-1.2h7c0.77 0 1.26-0.81 0.92-1.49l-12.24-24.01c-0.36-0.71 0.15-1.55 0.95-1.55h5.24c0.69 0 1.32 0.4 1.62 1.03l10.33 22.23c0.29 0.65 1.22 0.65 1.53 0z" fill="#EFEBE9"/><g display="none"><g display="inline"><g opacity=".6"><circle cx="64" cy="64" r="28" fill="none" opacity=".61" stroke="#000" stroke-miterlimit="10" stroke-width=".2625"/><line x1="83.5" x2="83.5" y2="128" fill="none" opacity=".61" stroke="#000" stroke-miterlimit="10"/><line x1="43.5" x2="43.5" y2="128" fill="none" opacity=".61" stroke="#000" stroke-miterlimit="10"/><line x1="63.5" x2="63.5" y2="128" fill="none" opacity=".61" stroke="#000" stroke-miterlimit="10"/><line x1="128" y1="64.5" y2="64.5" fill="none" opacity=".61" stroke="#000" stroke-miterlimit="10"/><line x1="128" y1="44.5" y2="44.5" fill="none" opacity=".61" stroke="#000" stroke-miterlimit="10"/><line x1="128" y1="83.5" y2="83.5" fill="none" opacity=".61" stroke="#000" stroke-miterlimit="10"/><line x1="128" y1="128" fill="none" opacity=".61" stroke="#000" stroke-miterlimit="10" stroke-width=".25"/><line x2="128" y1="128" fill="none" opacity=".61" stroke="#000" stroke-miterlimit="10" stroke-width=".25"/><g opacity=".61"><path d="M64,4.26c32.94,0,59.74,26.8,59.74,59.74S96.94,123.74,64,123.74S4.26,96.94,4.26,64S31.06,4.26,64,4.26 M64,4 C30.86,4,4,30.86,4,64s26.86,60,60,60s60-26.86,60-60S97.14,4,64,4L64,4z"/></g><path d="m115.5 108.47c0 4.43-3.59 8.03-8.03 8.03h-87.94c-4.43 0-8.03-3.59-8.03-8.03v-87.94c0-4.43 3.59-8.03 8.03-8.03h87.94c4.43 0 8.03 3.59 8.03 8.03v87.94z" fill="none" opacity=".61" stroke="#000" stroke-miterlimit="10"/><path d="m107.5 116.5c0 4.42-3.58 8-8 8h-72c-4.42 0-8-3.58-8-8v-104c0-4.42 3.58-8 8-8h72c4.42 0 8 3.58 8 8v104z" fill="none" opacity=".61" stroke="#000" stroke-miterlimit="10"/><path d="M123.5,98.27c0,5.65-4.58,10.23-10.23,10.23H13.73 c-5.65,0-10.23-4.58-10.23-10.23V30.73c0-5.65,4.58-10.23,10.23-10.23h99.54c5.65,0,10.23,4.58,10.23,10.23V98.27z" fill="none" opacity=".61" stroke="#000" stroke-miterlimit="10"/></g><g opacity=".2"><defs><rect id="b" width="128" height="128" opacity=".2"/></defs><clipPath id="a"><use xlink:href="#b"/></clipPath><g clip-path="url(#a)"><g fill="none" stroke="#000" stroke-miterlimit="10"><line x1="-28.5" x2="-28.5" y1="160" y2="-32"/><line x1="-24.5" x2="-24.5" y1="160" y2="-32"/><line x1="-20.5" x2="-20.5" y1="160" y2="-32"/><line x1="-16.5" x2="-16.5" y1="160" y2="-32"/><line x1="-12.5" x2="-12.5" y1="160" y2="-32"/><line x1="-8.5" x2="-8.5" y1="160" y2="-32"/><line x1="-4.5" x2="-4.5" y1="160" y2="-32"/><line x1="-.5" x2="-.5" y1="160" y2="-32"/><line x1="3.5" x2="3.5" y1="160" y2="-32"/><line x1="7.5" x2="7.5" y1="160" y2="-32"/><line x1="11.5" x2="11.5" y1="160" y2="-32"/><line x1="15.5" x2="15.5" y1="160" y2="-32"/><line x1="19.5" x2="19.5" y1="160" y2="-32"/><line x1="23.5" x2="23.5" y1="160" y2="-32"/><line x1="27.5" x2="27.5" y1="160" y2="-32"/><line x1="31.5" x2="31.5" y1="160" y2="-32"/><line x1="35.5" x2="35.5" y1="160" y2="-32"/><line x1="39.5" x2="39.5" y1="160" y2="-32"/><line x1="43.5" x2="43.5" y1="160" y2="-32"/><line x1="47.5" x2="47.5" y1="160" y2="-32"/><line x1="51.5" x2="51.5" y1="160" y2="-32"/><line x1="55.5" x2="55.5" y1="160" y2="-32"/><line x1="59.5" x2="59.5" y1="160" y2="-32"/><line x1="63.5" x2="63.5" y1="160" y2="-32"/><line x1="67.5" x2="67.5" y1="160" y2="-32"/><line x1="71.5" x2="71.5" y1="160" y2="-32"/><line x1="75.5" x2="75.5" y1="160" y2="-32"/><line x1="79.5" x2="79.5" y1="160" y2="-32"/><line x1="83.5" x2="83.5" y1="160" y2="-32"/><line x1="87.5" x2="87.5" y1="160" y2="-32"/><line x1="91.5" x2="91.5" y1="160" y2="-32"/><line x1="95.5" x2="95.5" y1="160" y2="-32"/><line x1="99.5" x2="99.5" y1="160" y2="-32"/><line x1="103.5" x2="103.5" y1="160" y2="-32"/><line x1="107.5" x2="107.5" y1="160" y2="-32"/><line x1="111.5" x2="111.5" y1="160" y2="-32"/><line x1="115.5" x2="115.5" y1="160" y2="-32"/><line x1="119.5" x2="119.5" y1="160" y2="-32"/><line x1="123.5" x2="123.5" y1="160" y2="-32"/><line x1="127.5" x2="127.5" y1="160" y2="-32"/><line x1="131.5" x2="131.5" y1="160" y2="-32"/><line x1="135.5" x2="135.5" y1="160" y2="-32"/><line x1="136.5" x2="136.5" y1="166" y2="-26"/><line x1="143.5" x2="143.5" y1="160" y2="-32"/><line x1="147.5" x2="147.5" y1="160" y2="-32"/><line x1="151.5" x2="151.5" y1="160" y2="-32"/><line x1="155.5" x2="155.5" y1="160" y2="-32"/></g><g fill="none" stroke="#000" stroke-miterlimit="10"><line x1="-32" x2="160" y1="-27.5" y2="-27.5"/><line x1="-32" x2="160" y1="-23.5" y2="-23.5"/><line x1="-32" x2="160" y1="-19.5" y2="-19.5"/><line x1="-32" x2="160" y1="-15.5" y2="-15.5"/><line x1="-32" x2="160" y1="-11.5" y2="-11.5"/><line x1="-32" x2="160" y1="-7.5" y2="-7.5"/><line x1="-32" x2="160" y1="-3.5" y2="-3.5"/><line x1="-32" x2="160" y1=".5" y2=".5"/><line x1="-32" x2="160" y1="4.5" y2="4.5"/><line x1="-32" x2="160" y1="8.5" y2="8.5"/><line x1="-32" x2="160" y1="12.5" y2="12.5"/><line x1="-32" x2="160" y1="16.5" y2="16.5"/><line x1="-32" x2="160" y1="20.5" y2="20.5"/><line x1="-32" x2="160" y1="24.5" y2="24.5"/><line x1="-32" x2="160" y1="28.5" y2="28.5"/><line x1="-32" x2="160" y1="32.5" y2="32.5"/><line x1="-32" x2="160" y1="36.5" y2="36.5"/><line x1="-32" x2="160" y1="40.5" y2="40.5"/><line x1="-32" x2="160" y1="44.5" y2="44.5"/><line x1="-32" x2="160" y1="48.5" y2="48.5"/><line x1="-32" x2="160" y1="52.5" y2="52.5"/><line x1="-32" x2="160" y1="56.5" y2="56.5"/><line x1="-32" x2="160" y1="60.5" y2="60.5"/><line x1="-32" x2="160" y1="64.5" y2="64.5"/><line x1="-32" x2="160" y1="68.5" y2="68.5"/><line x1="-32" x2="160" y1="72.5" y2="72.5"/><line x1="-32" x2="160" y1="76.5" y2="76.5"/><line x1="-32" x2="160" y1="80.5" y2="80.5"/><line x1="-32" x2="160" y1="84.5" y2="84.5"/><line x1="-32" x2="160" y1="88.5" y2="88.5"/><line x1="-32" x2="160" y1="92.5" y2="92.5"/><line x1="-32" x2="160" y1="96.5" y2="96.5"/><line x1="-32" x2="160" y1="100.5" y2="100.5"/><line x1="-32" x2="160" y1="104.5" y2="104.5"/><line x1="-32" x2="160" y1="108.5" y2="108.5"/><line x1="-32" x2="160" y1="112.5" y2="112.5"/><line x1="-32" x2="160" y1="116.5" y2="116.5"/><line x1="-32" x2="160" y1="120.5" y2="120.5"/><line x1="-32" x2="160" y1="124.5" y2="124.5"/><line x1="-32" x2="160" y1="128.5" y2="128.5"/><line x1="-32" x2="160" y1="132.5" y2="132.5"/><line x1="-32" x2="160" y1="136.5" y2="136.5"/><line x1="-32" x2="160" y1="140.5" y2="140.5"/><line x1="-32" x2="160" y1="144.5" y2="144.5"/><line x1="-32" x2="160" y1="148.5" y2="148.5"/><line x1="-32" x2="160" y1="152.5" y2="152.5"/><line x1="-32" x2="160" y1="156.5" y2="156.5"/></g><path d="m160-32v192h-192v-192h192-192v192h192v-192z"/></g></g><g fill="#F44336"><rect width="4" height="128" opacity=".3"/><rect x="124" width="4" height="128" opacity=".3"/><rect transform="matrix(-1.837e-16 1 -1 -1.837e-16 66 -62)" x="62" y="-58" width="4" height="120" opacity=".3"/><rect transform="matrix(-1.837e-16 1 -1 -1.837e-16 190 62)" x="62" y="66" width="4" height="120" opacity=".3"/></g></g></g></svg>

<svg width="128" height="128" style="enable-background:new 0 0 128 128;" xmlns="http://www.w3.org/2000/svg" xmlns:xlink="http://www.w3.org/1999/xlink">
  <g id="Layer_1">
    <linearGradient id="SVGID_1_" gradientUnits="userSpaceOnUse" x1="64" x2="64" y1="4.25" y2="124.4088">
      <stop offset="0" style="stop-color:#81C784"/>
      <stop offset="0.4141" style="stop-color:#6EBE71"/>
      <stop offset="1" style="stop-color:#4CAF50"/>
    </linearGradient>
    <path d="M116,124H12c-4.42,0-8-3.58-8-8V12c0-4.42,3.58-8,8-8h104c4.42,0,8,3.58,8,8v104 C124,120.42,120.42,124,116,124z" style="fill:url(#SVGID_1_);"/>
    <g style="opacity:0.2;">
      <path d="M116,7c2.76,0,5,2.24,5,5v104c0,2.76-2.24,5-5,5H12c-2.76,0-5-2.24-5-5V12c0-2.76,2.24-5,5-5H116 M116,4H12c-4.42,0-8,3.58-8,8v104c0,4.42,3.58,8,8,8h104c4.42,0,8-3.58,8-8V12C124,7.58,120.42,4,116,4L116,4z" style="fill:#424242;"/>
    </g>
    <polyline points=" 14.15,110.88 26.1,96.12 38.12,104.5 46.02,88 58.02,80 70.1,100 80.1,72 91.85,90 105.94,64.08 113.85,23.92 " style="fill:none;stroke:#EFEBE9;stroke-width:5;stroke-linecap:round;stroke-linejoin:round;stroke-miterlimit:10;"/>
    <path d="M40.85,39.39l10.33-22.23c0.29-0.63,0.92-1.03,1.62-1.03h5.12c0.8,0,1.32,0.84,0.95,1.55 L46.63,41.69c-0.35,0.68,0.15,1.49,0.92,1.49h6.93c0.66,0,1.2,0.54,1.2,1.2v2.29c0,0.66-0.54,1.2-1.2,1.2h-9.93 c-0.58,0-1.04,0.47-1.04,1.04v4.12c0,0.58,0.47,1.04,1.04,1.04h9.93c0.66,0,1.2,0.54,1.2,1.2v2.25c0,0.66-0.54,1.2-1.2,1.2h-9.93 c-0.58,0-1.04,0.47-1.04,1.04v9.72c0,0.74-0.6,1.34-1.34,1.34h-4.57c-0.74,0-1.34-0.6-1.34-1.34v-9.72c0-0.58-0.47-1.04-1.04-1.04 H25.5c-0.66,0-1.2-0.54-1.2-1.2v-2.25c0-0.66,0.54-1.2,1.2-1.2h9.71c0.58,0,1.04-0.47,1.04-1.04v-4.12c0-0.58-0.47-1.04-1.04-1.04 H25.5c-0.66,0-1.2-0.54-1.2-1.2v-2.29c0-0.66,0.54-1.2,1.2-1.2h7c0.77,0,1.26-0.81,0.92-1.49L21.18,17.68 c-0.36-0.71,0.15-1.55,0.95-1.55h5.24c0.69,0,1.32,0.4,1.62,1.03l10.33,22.23C39.61,40.04,40.54,40.04,40.85,39.39z" style="fill:#EFEBE9;"/>
  </g>
  <g id="Layer_2" style="display:none;">
    <g style="display:inline;">
      <g style="opacity:0.6;">
        <circle cx="64" cy="64" r="28" style="opacity:0.61;fill:none;stroke:#000000;stroke-width:0.2625;stroke-miterlimit:10;"/>
        <line style="opacity:0.61;fill:none;stroke:#000000;stroke-miterlimit:10;" x1="83.5" x2="83.5" y1="0" y2="128"/>
        <line style="opacity:0.61;fill:none;stroke:#000000;stroke-miterlimit:10;" x1="43.5" x2="43.5" y1="0" y2="128"/>
        <line style="opacity:0.61;fill:none;stroke:#000000;stroke-miterlimit:10;" x1="63.5" x2="63.5" y1="0" y2="128"/>
        <line style="opacity:0.61;fill:none;stroke:#000000;stroke-miterlimit:10;" x1="128" x2="0" y1="64.5" y2="64.5"/>
        <line style="opacity:0.61;fill:none;stroke:#000000;stroke-miterlimit:10;" x1="128" x2="0" y1="44.5" y2="44.5"/>
        <line style="opacity:0.61;fill:none;stroke:#000000;stroke-miterlimit:10;" x1="128" x2="0" y1="83.5" y2="83.5"/>
        <line style="opacity:0.61;fill:none;stroke:#000000;stroke-width:0.25;stroke-miterlimit:10;" x1="128" x2="0" y1="128" y2="0"/>
        <line style="opacity:0.61;fill:none;stroke:#000000;stroke-width:0.25;stroke-miterlimit:10;" x1="0" x2="128" y1="128" y2="0"/>
        <g style="opacity:0.61;">
          <path d="M64,4.26c32.94,0,59.74,26.8,59.74,59.74S96.94,123.74,64,123.74S4.26,96.94,4.26,64S31.06,4.26,64,4.26 M64,4 C30.86,4,4,30.86,4,64s26.86,60,60,60s60-26.86,60-60S97.14,4,64,4L64,4z"/>
        </g>
        <path d="M115.5,108.47c0,4.43-3.59,8.03-8.03,8.03H19.53 c-4.43,0-8.03-3.59-8.03-8.03V20.53c0-4.43,3.59-8.03,8.03-8.03h87.94c4.43,0,8.03,3.59,8.03,8.03V108.47z" style="opacity:0.61;fill:none;stroke:#000000;stroke-miterlimit:10;"/>
        <path d="M107.5,116.5c0,4.42-3.58,8-8,8h-72 c-4.42,0-8-3.58-8-8v-104c0-4.42,3.58-8,8-8h72c4.42,0,8,3.58,8,8V116.5z" style="opacity:0.61;fill:none;stroke:#000000;stroke-miterlimit:10;"/>
        <path d="M123.5,98.27c0,5.65-4.58,10.23-10.23,10.23H13.73 c-5.65,0-10.23-4.58-10.23-10.23V30.73c0-5.65,4.58-10.23,10.23-10.23h99.54c5.65,0,10.23,4.58,10.23,10.23V98.27z" style="opacity:0.61;fill:none;stroke:#000000;stroke-miterlimit:10;"/>
      </g>
      <g>
        <g style="opacity:0.2;">
          <defs>
            <rect id="SVGID_2_" height="128" style="opacity:0.2;" width="128" x="0"/>
          </defs>
          <clipPath id="SVGID_3_">
            <use style="overflow:visible;" xlink:href="#SVGID_2_"/>
          </clipPath>
          <g style="clip-path:url(#SVGID_3_);">
            <g>
              <line style="fill:none;stroke:#000000;stroke-miterlimit:10;" x1="-28.5" x2="-28.5" y1="160" y2="-32"/>
              <line style="fill:none;stroke:#000000;stroke-miterlimit:10;" x1="-24.5" x2="-24.5" y1="160" y2="-32"/>
              <line style="fill:none;stroke:#000000;stroke-miterlimit:10;" x1="-20.5" x2="-20.5" y1="160" y2="-32"/>
              <line style="fill:none;stroke:#000000;stroke-miterlimit:10;" x1="-16.5" x2="-16.5" y1="160" y2="-32"/>
              <line style="fill:none;stroke:#000000;stroke-miterlimit:10;" x1="-12.5" x2="-12.5" y1="160" y2="-32"/>
              <line style="fill:none;stroke:#000000;stroke-miterlimit:10;" x1="-8.5" x2="-8.5" y1="160" y2="-32"/>
              <line style="fill:none;stroke:#000000;stroke-miterlimit:10;" x1="-4.5" x2="-4.5" y1="160" y2="-32"/>
              <line style="fill:none;stroke:#000000;stroke-miterlimit:10;" x1="-0.5" x2="-0.5" y1="160" y2="-32"/>
              <line style="fill:none;stroke:#000000;stroke-miterlimit:10;" x1="3.5" x2="3.5" y1="160" y2="-32"/>
              <line style="fill:none;stroke:#000000;stroke-miterlimit:10;" x1="7.5" x2="7.5" y1="160" y2="-32"/>
              <line style="fill:none;stroke:#000000;stroke-miterlimit:10;" x1="11.5" x2="11.5" y1="160" y2="-32"/>
              <line style="fill:none;stroke:#000000;stroke-miterlimit:10;" x1="15.5" x2="15.5" y1="160" y2="-32"/>
              <line style="fill:none;stroke:#000000;stroke-miterlimit:10;" x1="19.5" x2="19.5" y1="160" y2="-32"/>
              <line style="fill:none;stroke:#000000;stroke-miterlimit:10;" x1="23.5" x2="23.5" y1="160" y2="-32"/>
              <line style="fill:none;stroke:#000000;stroke-miterlimit:10;" x1="27.5" x2="27.5" y1="160" y2="-32"/>
              <line style="fill:none;stroke:#000000;stroke-miterlimit:10;" x1="31.5" x2="31.5" y1="160" y2="-32"/>
              <line style="fill:none;stroke:#000000;stroke-miterlimit:10;" x1="35.5" x2="35.5" y1="160" y2="-32"/>
              <line style="fill:none;stroke:#000000;stroke-miterlimit:10;" x1="39.5" x2="39.5" y1="160" y2="-32"/>
              <line style="fill:none;stroke:#000000;stroke-miterlimit:10;" x1="43.5" x2="43.5" y1="160" y2="-32"/>
              <line style="fill:none;stroke:#000000;stroke-miterlimit:10;" x1="47.5" x2="47.5" y1="160" y2="-32"/>
              <line style="fill:none;stroke:#000000;stroke-miterlimit:10;" x1="51.5" x2="51.5" y1="160" y2="-32"/>
              <line style="fill:none;stroke:#000000;stroke-miterlimit:10;" x1="55.5" x2="55.5" y1="160" y2="-32"/>
              <line style="fill:none;stroke:#000000;stroke-miterlimit:10;" x1="59.5" x2="59.5" y1="160" y2="-32"/>
              <line style="fill:none;stroke:#000000;stroke-miterlimit:10;" x1="63.5" x2="63.5" y1="160" y2="-32"/>
              <line style="fill:none;stroke:#000000;stroke-miterlimit:10;" x1="67.5" x2="67.5" y1="160" y2="-32"/>
              <line style="fill:none;stroke:#000000;stroke-miterlimit:10;" x1="71.5" x2="71.5" y1="160" y2="-32"/>
              <line style="fill:none;stroke:#000000;stroke-miterlimit:10;" x1="75.5" x2="75.5" y1="160" y2="-32"/>
              <line style="fill:none;stroke:#000000;stroke-miterlimit:10;" x1="79.5" x2="79.5" y1="160" y2="-32"/>
              <line style="fill:none;stroke:#000000;stroke-miterlimit:10;" x1="83.5" x2="83.5" y1="160" y2="-32"/>
              <line style="fill:none;stroke:#000000;stroke-miterlimit:10;" x1="87.5" x2="87.5" y1="160" y2="-32"/>
              <line style="fill:none;stroke:#000000;stroke-miterlimit:10;" x1="91.5" x2="91.5" y1="160" y2="-32"/>
              <line style="fill:none;stroke:#000000;stroke-miterlimit:10;" x1="95.5" x2="95.5" y1="160" y2="-32"/>
              <line style="fill:none;stroke:#000000;stroke-miterlimit:10;" x1="99.5" x2="99.5" y1="160" y2="-32"/>
              <line style="fill:none;stroke:#000000;stroke-miterlimit:10;" x1="103.5" x2="103.5" y1="160" y2="-32"/>
              <line style="fill:none;stroke:#000000;stroke-miterlimit:10;" x1="107.5" x2="107.5" y1="160" y2="-32"/>
              <line style="fill:none;stroke:#000000;stroke-miterlimit:10;" x1="111.5" x2="111.5" y1="160" y2="-32"/>
              <line style="fill:none;stroke:#000000;stroke-miterlimit:10;" x1="115.5" x2="115.5" y1="160" y2="-32"/>
              <line style="fill:none;stroke:#000000;stroke-miterlimit:10;" x1="119.5" x2="119.5" y1="160" y2="-32"/>
              <line style="fill:none;stroke:#000000;stroke-miterlimit:10;" x1="123.5" x2="123.5" y1="160" y2="-32"/>
              <line style="fill:none;stroke:#000000;stroke-miterlimit:10;" x1="127.5" x2="127.5" y1="160" y2="-32"/>
              <line style="fill:none;stroke:#000000;stroke-miterlimit:10;" x1="131.5" x2="131.5" y1="160" y2="-32"/>
              <line style="fill:none;stroke:#000000;stroke-miterlimit:10;" x1="135.5" x2="135.5" y1="160" y2="-32"/>
              <line style="fill:none;stroke:#000000;stroke-miterlimit:10;" x1="136.5" x2="136.5" y1="166" y2="-26"/>
              <line style="fill:none;stroke:#000000;stroke-miterlimit:10;" x1="143.5" x2="143.5" y1="160" y2="-32"/>
              <line style="fill:none;stroke:#000000;stroke-miterlimit:10;" x1="147.5" x2="147.5" y1="160" y2="-32"/>
              <line style="fill:none;stroke:#000000;stroke-miterlimit:10;" x1="151.5" x2="151.5" y1="160" y2="-32"/>
              <line style="fill:none;stroke:#000000;stroke-miterlimit:10;" x1="155.5" x2="155.5" y1="160" y2="-32"/>
            </g>
            <g>
              <line style="fill:none;stroke:#000000;stroke-miterlimit:10;" x1="-32" x2="160" y1="-27.5" y2="-27.5"/>
              <line style="fill:none;stroke:#000000;stroke-miterlimit:10;" x1="-32" x2="160" y1="-23.5" y2="-23.5"/>
              <line style="fill:none;stroke:#000000;stroke-miterlimit:10;" x1="-32" x2="160" y1="-19.5" y2="-19.5"/>
              <line style="fill:none;stroke:#000000;stroke-miterlimit:10;" x1="-32" x2="160" y1="-15.5" y2="-15.5"/>
              <line style="fill:none;stroke:#000000;stroke-miterlimit:10;" x1="-32" x2="160" y1="-11.5" y2="-11.5"/>
              <line style="fill:none;stroke:#000000;stroke-miterlimit:10;" x1="-32" x2="160" y1="-7.5" y2="-7.5"/>
              <line style="fill:none;stroke:#000000;stroke-miterlimit:10;" x1="-32" x2="160" y1="-3.5" y2="-3.5"/>
              <line style="fill:none;stroke:#000000;stroke-miterlimit:10;" x1="-32" x2="160" y1="0.5" y2="0.5"/>
              <line style="fill:none;stroke:#000000;stroke-miterlimit:10;" x1="-32" x2="160" y1="4.5" y2="4.5"/>
              <line style="fill:none;stroke:#000000;stroke-miterlimit:10;" x1="-32" x2="160" y1="8.5" y2="8.5"/>
              <line style="fill:none;stroke:#000000;stroke-miterlimit:10;" x1="-32" x2="160" y1="12.5" y2="12.5"/>
              <line style="fill:none;stroke:#000000;stroke-miterlimit:10;" x1="-32" x2="160" y1="16.5" y2="16.5"/>
              <line style="fill:none;stroke:#000000;stroke-miterlimit:10;" x1="-32" x2="160" y1="20.5" y2="20.5"/>
              <line style="fill:none;stroke:#000000;stroke-miterlimit:10;" x1="-32" x2="160" y1="24.5" y2="24.5"/>
              <line style="fill:none;stroke:#000000;stroke-miterlimit:10;" x1="-32" x2="160" y1="28.5" y2="28.5"/>
              <line style="fill:none;stroke:#000000;stroke-miterlimit:10;" x1="-32" x2="160" y1="32.5" y2="32.5"/>
              <line style="fill:none;stroke:#000000;stroke-miterlimit:10;" x1="-32" x2="160" y1="36.5" y2="36.5"/>
              <line style="fill:none;stroke:#000000;stroke-miterlimit:10;" x1="-32" x2="160" y1="40.5" y2="40.5"/>
              <line style="fill:none;stroke:#000000;stroke-miterlimit:10;" x1="-32" x2="160" y1="44.5" y2="44.5"/>
              <line style="fill:none;stroke:#000000;stroke-miterlimit:10;" x1="-32" x2="160" y1="48.5" y2="48.5"/>
              <line style="fill:none;stroke:#000000;stroke-miterlimit:10;" x1="-32" x2="160" y1="52.5" y2="52.5"/>
              <line style="fill:none;stroke:#000000;stroke-miterlimit:10;" x1="-32" x2="160" y1="56.5" y2="56.5"/>
              <line style="fill:none;stroke:#000000;stroke-miterlimit:10;" x1="-32" x2="160" y1="60.5" y2="60.5"/>
              <line style="fill:none;stroke:#000000;stroke-miterlimit:10;" x1="-32" x2="160" y1="64.5" y2="64.5"/>
              <line style="fill:none;stroke:#000000;stroke-miterlimit:10;" x1="-32" x2="160" y1="68.5" y2="68.5"/>
              <line style="fill:none;stroke:#000000;stroke-miterlimit:10;" x1="-32" x2="160" y1="72.5" y2="72.5"/>
              <line style="fill:none;stroke:#000000;stroke-miterlimit:10;" x1="-32" x2="160" y1="76.5" y2="76.5"/>
              <line style="fill:none;stroke:#000000;stroke-miterlimit:10;" x1="-32" x2="160" y1="80.5" y2="80.5"/>
              <line style="fill:none;stroke:#000000;stroke-miterlimit:10;" x1="-32" x2="160" y1="84.5" y2="84.5"/>
              <line style="fill:none;stroke:#000000;stroke-miterlimit:10;" x1="-32" x2="160" y1="88.5" y2="88.5"/>
              <line style="fill:none;stroke:#000000;stroke-miterlimit:10;" x1="-32" x2="160" y1="92.5" y2="92.5"/>
              <line style="fill:none;stroke:#000000;stroke-miterlimit:10;" x1="-32" x2="160" y1="96.5" y2="96.5"/>
              <line style="fill:none;stroke:#000000;stroke-miterlimit:10;" x1="-32" x2="160" y1="100.5" y2="100.5"/>
              <line style="fill:none;stroke:#000000;stroke-miterlimit:10;" x1="-32" x2="160" y1="104.5" y2="104.5"/>
              <line style="fill:none;stroke:#000000;stroke-miterlimit:10;" x1="-32" x2="160" y1="108.5" y2="108.5"/>
              <line style="fill:none;stroke:#000000;stroke-miterlimit:10;" x1="-32" x2="160" y1="112.5" y2="112.5"/>
              <line style="fill:none;stroke:#000000;stroke-miterlimit:10;" x1="-32" x2="160" y1="116.5" y2="116.5"/>
              <line style="fill:none;stroke:#000000;stroke-miterlimit:10;" x1="-32" x2="160" y1="120.5" y2="120.5"/>
              <line style="fill:none;stroke:#000000;stroke-miterlimit:10;" x1="-32" x2="160" y1="124.5" y2="124.5"/>
              <line style="fill:none;stroke:#000000;stroke-miterlimit:10;" x1="-32" x2="160" y1="128.5" y2="128.5"/>
              <line style="fill:none;stroke:#000000;stroke-miterlimit:10;" x1="-32" x2="160" y1="132.5" y2="132.5"/>
              <line style="fill:none;stroke:#000000;stroke-miterlimit:10;" x1="-32" x2="160" y1="136.5" y2="136.5"/>
              <line style="fill:none;stroke:#000000;stroke-miterlimit:10;" x1="-32" x2="160" y1="140.5" y2="140.5"/>
              <line style="fill:none;stroke:#000000;stroke-miterlimit:10;" x1="-32" x2="160" y1="144.5" y2="144.5"/>
              <line style="fill:none;stroke:#000000;stroke-miterlimit:10;" x1="-32" x2="160" y1="148.5" y2="148.5"/>
              <line style="fill:none;stroke:#000000;stroke-miterlimit:10;" x1="-32" x2="160" y1="152.5" y2="152.5"/>
              <line style="fill:none;stroke:#000000;stroke-miterlimit:10;" x1="-32" x2="160" y1="156.5" y2="156.5"/>
            </g>
            <path d="M160-32v192H-32V-32H160 M160-32H-32v192h192V-32L160-32z"/>
          </g>
        </g>
        <g>
          <rect height="128" style="opacity:0.3;fill:#F44336;" width="4" x="0"/>
          <rect height="128" style="opacity:0.3;fill:#F44336;" width="4" x="124"/>
          <rect height="120" style="opacity:0.3;fill:#F44336;" transform="matrix(-1.836970e-16 1 -1 -1.836970e-16 66 -62)" width="4" x="62" y="-58"/>
          <rect height="120" style="opacity:0.3;fill:#F44336;" transform="matrix(-1.836970e-16 1 -1 -1.836970e-16 190 62)" width="4" x="62" y="66"/>
        </g>
      </g>
    </g>
  </g>
</svg>
